build/img/icon-detective-w.svg

<svg width="31" height="26" viewBox="0 0 31 26" fill="none" xmlns="http://www.w3.org/2000/svg">
<path d="M15.1021 8.18423C14.7765 8.18423 14.5122 8.45008 14.5122 8.77809C14.5122 9.10587 14.7765 9.37194 15.1021 9.37194C15.4278 9.37194 15.6921 9.10587 15.6921 8.77809C15.6921 8.45008 15.4278 8.18423 15.1021 8.18423Z" fill="#ffffff"/>
<path d="M28.4347 11.7474H26.1393C24.9292 8.2692 23.1735 2.17036 19.9929 0.444239C18.4022 -0.41801 16.8985 0.184195 16.333 1.40763C16.0925 1.92772 15.612 2.20121 15.1023 2.20121C14.5856 2.20121 14.109 1.92168 13.8715 1.40809C13.326 0.226415 11.8583 -0.431001 10.3233 0.318972C7.09186 1.89872 5.28473 8.24299 4.06523 11.7474H1.7698C0.792029 11.7474 0 12.5445 0 13.529C0 14.5112 0.793873 15.3106 1.7698 15.3106H28.4347C29.4125 15.3106 30.2045 14.5133 30.2045 13.529C30.2045 12.5466 29.4106 11.7474 28.4347 11.7474ZM6.13759 9.37201H12.7425C13.0684 9.37201 13.3325 9.10593 13.3325 8.77815C13.3325 8.45014 13.0684 8.1843 12.7425 8.1843H6.55009C8.32841 3.2393 9.98966 1.80245 10.8386 1.38745C11.7648 0.935097 12.5271 1.31368 12.8017 1.90893C13.2345 2.84471 14.1298 3.38892 15.1023 3.38892C16.077 3.38892 16.9711 2.84262 17.4028 1.90893C17.6855 1.29674 18.4517 0.95783 19.4332 1.48975C20.286 1.95277 21.9422 3.4374 23.6542 8.1843H17.462C17.1361 8.1843 16.872 8.45014 16.872 8.77815C16.872 9.10616 17.1361 9.37201 17.462 9.37201H24.0671C24.3653 10.2377 24.675 11.1311 24.8894 11.7474H5.31538C5.529 11.1327 5.83802 10.2414 6.13759 9.37201ZM28.4347 14.1228H1.7698C1.44441 14.1228 1.17986 13.8563 1.17986 13.529C1.17986 13.201 1.44395 12.9351 1.7698 12.9351H28.4347C28.7601 12.9351 29.0246 13.2014 29.0246 13.529C29.0246 13.8568 28.7603 14.1228 28.4347 14.1228Z" fill="#ffffff"/>
<path d="M13.9224 17.686H4.48349C4.15764 17.686 3.89355 17.9519 3.89355 18.2799V20.6553C3.89355 23.6023 6.2754 26 9.20294 26C11.4212 26 13.3845 24.6265 14.1655 22.5573C14.7587 22.2849 15.4458 22.2849 16.039 22.5573C16.82 24.6265 18.7833 25.9998 21.0016 25.9998C23.9291 25.9998 26.311 23.6023 26.311 20.6551V18.2796C26.311 17.9516 26.0469 17.6858 25.721 17.6858H16.2821C15.9563 17.6858 15.6922 17.9516 15.6922 18.2796V18.8735H14.5123V18.2796C14.5123 17.9519 14.2482 17.686 13.9224 17.686ZM9.20294 24.8123C6.92594 24.8123 5.07342 22.9474 5.07342 20.6553V18.8737H13.3325V20.6553C13.3325 22.9535 11.4898 24.8123 9.20294 24.8123ZM16.8721 18.8737H25.1311V20.6553C25.1311 22.9474 23.2786 24.8123 21.0016 24.8123C18.7089 24.8123 16.8721 22.9479 16.8721 20.6553V18.8737ZM15.6922 20.0614V20.6553C15.6922 20.8451 15.703 21.0341 15.7226 21.2218C15.3127 21.1464 14.8919 21.1464 14.4819 21.2218C14.5015 21.0341 14.5123 20.8451 14.5123 20.6553V20.0614H15.6922Z" fill="#ffffff"/>
<path d="M9.2021 22.4368C8.22618 22.4368 7.4323 21.6374 7.4323 20.6552C7.4323 20.3272 7.16822 20.0613 6.84237 20.0613C6.51653 20.0613 6.25244 20.3272 6.25244 20.6552C6.25244 22.2922 7.57564 23.6245 9.2021 23.6245C9.52794 23.6245 9.79203 23.3584 9.79203 23.0306C9.79203 22.7026 9.52794 22.4368 9.2021 22.4368Z" fill="#ffffff"/>
<path d="M21.002 23.6245C22.6285 23.6245 23.9517 22.2922 23.9517 20.6552C23.9517 20.3272 23.6876 20.0613 23.3618 20.0613C23.0359 20.0613 22.7718 20.3272 22.7718 20.6552C22.7718 21.6374 21.978 22.4368 21.002 22.4368C20.6762 22.4368 20.4121 22.7026 20.4121 23.0306C20.4121 23.3584 20.6762 23.6245 21.002 23.6245Z" fill="#ffffff"/>
</svg>

<svg width="31" height="26" fill="none" xmlns="http://www.w3.org/2000/svg"><path d="M15.102 8.184a.592.592 0 00-.59.594c0 .328.264.594.59.594.326 0 .59-.266.59-.594a.592.592 0 00-.59-.594z" fill="#fff"/><path d="M28.435 11.747h-2.296C24.93 8.27 23.174 2.17 19.993.444c-1.59-.862-3.095-.26-3.66.964-.24.52-.721.793-1.23.793-.517 0-.994-.28-1.232-.793C13.326.226 11.858-.43 10.323.32 7.092 1.9 5.285 8.244 4.065 11.748H1.77c-.978 0-1.77.797-1.77 1.782 0 .982.794 1.782 1.77 1.782h26.665c.978 0 1.77-.798 1.77-1.782 0-.982-.794-1.782-1.77-1.782zM6.138 9.372h6.604c.326 0 .59-.266.59-.594a.592.592 0 00-.59-.594H6.55c1.778-4.944 3.44-6.382 4.29-6.797.926-.452 1.688-.073 1.963.522a2.514 2.514 0 002.3 1.48 2.51 2.51 0 002.3-1.48c.284-.612 1.05-.951 2.031-.42.853.464 2.51 1.948 4.221 6.695h-6.192a.592.592 0 00-.59.594c0 .328.264.594.59.594h6.605c.298.866.608 1.76.822 2.375H5.315c.214-.614.523-1.506.823-2.375zm22.297 4.75H1.77a.593.593 0 01-.59-.593c0-.328.264-.594.59-.594h26.665c.325 0 .59.266.59.594a.592.592 0 01-.59.594zm-14.513 3.564H4.483a.592.592 0 00-.59.594v2.375c0 2.947 2.382 5.345 5.31 5.345a5.299 5.299 0 004.963-3.443 2.25 2.25 0 011.873 0A5.299 5.299 0 0021.002 26c2.927 0 5.309-2.398 5.309-5.345V18.28a.592.592 0 00-.59-.594h-9.439a.592.592 0 00-.59.594v.593h-1.18v-.593a.592.592 0 00-.59-.594zm-4.72 7.126c-2.276 0-4.129-1.865-4.129-4.157v-1.781h8.26v1.781c0 2.298-1.843 4.157-4.13 4.157zm7.67-5.938h8.26v1.781c0 2.292-1.853 4.157-4.13 4.157-2.293 0-4.13-1.864-4.13-4.157v-1.781zm-1.18 1.187v.594c0 .19.011.38.03.567a3.43 3.43 0 00-1.24 0c.02-.188.03-.377.03-.567v-.594h1.18z" fill="#fff"/><path d="M9.202 22.437c-.976 0-1.77-.8-1.77-1.782a.592.592 0 00-.59-.594.592.592 0 00-.59.594c0 1.637 1.324 2.97 2.95 2.97.326 0 .59-.267.59-.594a.592.592 0 00-.59-.594zm11.8 1.188c1.627 0 2.95-1.333 2.95-2.97a.592.592 0 00-.59-.594.592.592 0 00-.59.594c0 .982-.794 1.782-1.77 1.782a.592.592 0 00-.59.594c0 .327.264.594.59.594z" fill="#fff"/></svg>
